(Z200)
(T5  D=3. CR=0. - ZMIN=-20. - FLAT END MILL)
G90 G94 G91.1 G40 G49 G17
G21
(WHEN USING FUSION 360 FOR PERSONAL USE, THE FEEDRATE OF)
(RAPID MOVES IS REDUCED TO MATCH THE FEEDRATE OF CUTTING)
(MOVES, WHICH CAN INCREASE MACHINING TIME. UNRESTRICTED RAPID)
(MOVES ARE AVAILABLE WITH A FUSION 360 SUBSCRIPTION.)

(CUT200MM)
M5
T5 M6
S12000 M3
G54
G0 X0. Y201.5
G43 Z5. H5
G1 Z1.2 F100.
Z-0.2
X81.
Z5.
X0.
Z1.
Z-0.4
X81.
Z5.
X0.
Z0.8
Z-0.6
X81.
Z5.
X0.
Z0.6
Z-0.8
X81.
Z5.
X0.
Z0.4
Z-1.
X81.
Z5.
X0.
Z0.2
Z-1.2
X81.
Z5.
X0.
Z0.
Z-1.4
X81.
Z5.
X0.
Z-0.2
Z-1.6
X81.
Z5.
X0.
Z-0.4
Z-1.8
X81.
Z5.
X0.
Z-0.6
Z-2.
X81.
Z5.
X0.
Z-0.8
Z-2.2
X81.
Z5.
X0.
Z-1.
Z-2.4
X81.
Z5.
X0.
Z-1.2
Z-2.6
X81.
Z5.
X0.
Z-1.4
Z-2.8
X81.
Z5.
X0.
Z-1.6
Z-3.
X81.
Z5.
X0.
Z-1.8
Z-3.2
X81.
Z5.
X0.
Z-2.
Z-3.4
X81.
Z5.
X0.
Z-2.2
Z-3.6
X81.
Z5.
X0.
Z-2.4
Z-3.8
X81.
Z5.
X0.
Z-2.6
Z-4.
X81.
Z5.
X0.
Z-2.8
Z-4.2
X81.
Z5.
X0.
Z-3.
Z-4.4
X81.
Z5.
X0.
Z-3.2
Z-4.6
X81.
Z5.
X0.
Z-3.4
Z-4.8
X81.
Z5.
X0.
Z-3.6
Z-5.
X81.
Z5.
X0.
Z-3.8
Z-5.2
X81.
Z5.
X0.
Z-4.
Z-5.4
X81.
Z5.
X0.
Z-4.2
Z-5.6
X81.
Z5.
X0.
Z-4.4
Z-5.8
X81.
Z5.
X0.
Z-4.6
Z-6.
X81.
Z5.
X0.
Z-4.8
Z-6.2
X81.
Z5.
X0.
Z-5.
Z-6.4
X81.
Z5.
X0.
Z-5.2
Z-6.6
X81.
Z5.
X0.
Z-5.4
Z-6.8
X81.
Z5.
X0.
Z-5.6
Z-7.
X81.
Z5.
X0.
Z-5.8
Z-7.2
X81.
Z5.
X0.
Z-6.
Z-7.4
X81.
Z5.
X0.
Z-6.2
Z-7.6
X81.
Z5.
X0.
Z-6.4
Z-7.8
X81.
Z5.
X0.
Z-6.6
Z-8.
X81.
Z5.
X0.
Z-6.8
Z-8.2
X81.
Z5.
X0.
Z-7.
Z-8.4
X81.
Z5.
X0.
Z-7.2
Z-8.6
X81.
Z5.
X0.
Z-7.4
Z-8.8
X81.
Z5.
X0.
Z-7.6
Z-9.
X81.
Z5.
X0.
Z-7.8
Z-9.2
X81.
Z5.
X0.
Z-8.
Z-9.4
X81.
Z5.
X0.
Z-8.2
Z-9.6
X81.
Z5.
X0.
Z-8.4
Z-9.8
X81.
Z5.
X0.
Z-8.6
Z-10.
X81.
Z5.
X0.
Z-8.8
Z-10.2
X81.
Z5.
X0.
Z-9.
Z-10.4
X81.
Z5.
X0.
Z-9.2
Z-10.6
X81.
Z5.
X0.
Z-9.4
Z-10.8
X81.
Z5.
X0.
Z-9.6
Z-11.
X81.
Z5.
X0.
Z-9.8
Z-11.2
X81.
Z5.
X0.
Z-10.
Z-11.4
X81.
Z5.
X0.
Z-10.2
Z-11.6
X81.
Z5.
X0.
Z-10.4
Z-11.8
X81.
Z5.
X0.
Z-10.6
Z-12.
X81.
Z5.
X0.
Z-10.8
Z-12.2
X81.
Z5.
X0.
Z-11.
Z-12.4
X81.
Z5.
X0.
Z-11.2
Z-12.6
X81.
Z5.
X0.
Z-11.4
Z-12.8
X81.
Z5.
X0.
Z-11.6
Z-13.
X81.
Z5.
X0.
Z-11.8
Z-13.2
X81.
Z5.
X0.
Z-12.
Z-13.4
X81.
Z5.
X0.
Z-12.2
Z-13.6
X81.
Z5.
X0.
Z-12.4
Z-13.8
X81.
Z5.
X0.
Z-12.6
Z-14.
X81.
Z5.
X0.
Z-12.8
Z-14.2
X81.
Z5.
X0.
Z-13.
Z-14.4
X81.
Z5.
X0.
Z-13.2
Z-14.6
X81.
Z5.
X0.
Z-13.4
Z-14.8
X81.
Z5.
X0.
Z-13.6
Z-15.
X81.
Z5.
X0.
Z-13.8
Z-15.2
X81.
Z5.
X0.
Z-14.
Z-15.4
X81.
Z5.
X0.
Z-14.2
Z-15.6
X81.
Z5.
X0.
Z-14.4
Z-15.8
X81.
Z5.
X0.
Z-14.6
Z-16.
X81.
Z5.
X0.
Z-14.8
Z-16.2
X81.
Z5.
X0.
Z-15.
Z-16.4
X81.
Z5.
X0.
Z-15.2
Z-16.6
X81.
Z5.
X0.
Z-15.4
Z-16.8
X81.
Z5.
X0.
Z-15.6
Z-17.
X81.
Z5.
X0.
Z-15.8
Z-17.2
X81.
Z5.
X0.
Z-16.
Z-17.4
X81.
Z5.
X0.
Z-16.2
Z-17.6
X81.
Z5.
X0.
Z-16.4
Z-17.8
X81.
Z5.
X0.
Z-16.6
Z-18.
X81.
Z5.
X0.
Z-16.8
Z-18.2
X81.
Z5.
X0.
Z-17.
Z-18.4
X81.
Z5.
X0.
Z-17.2
Z-18.6
X81.
Z5.
X0.
Z-17.4
Z-18.8
X81.
Z5.
X0.
Z-17.6
Z-19.
X81.
Z5.
X0.
Z-17.8
Z-19.2
X81.
Z5.
X0.
Z-18.
Z-19.4
X81.
Z5.
X0.
Z-18.2
Z-19.6
X81.
Z5.
X0.
Z-18.4
Z-19.8
X81.
Z5.
X0.
Z-18.6
Z-20.
X81.
Z5.

M30
