(TOP)
G90 G94 G91.1 G40 G49 G17
G21
(WHEN USING FUSION 360 FOR PERSONAL USE, THE FEEDRATE OF)
(RAPID MOVES IS REDUCED TO MATCH THE FEEDRATE OF CUTTING)
(MOVES, WHICH CAN INCREASE MACHINING TIME. UNRESTRICTED RAPID)
(MOVES ARE AVAILABLE WITH A FUSION 360 SUBSCRIPTION.)

(2D CONTOUR1)
M5
T1
S15000 M3
G54
G0 X17.247 Y-16.66
G43 Z5. H1
G1 Z1.3 F100.
Z-0.3
G3 X16.072 I-0.587 J0. F500.
X17.247 I0.587 J0.
G1 Z-0.6 F100.
G3 X16.072 I-0.587 J0. F500.
X17.247 I0.587 J0.
G1 Z-0.9 F100.
G3 X16.072 I-0.587 J0. F500.
X17.247 I0.587 J0.
G1 Z-1.2 F100.
G3 X16.072 I-0.587 J0. F500.
X17.247 I0.587 J0.
G1 Z-1.5 F100.
G3 X16.072 I-0.587 J0. F500.
X17.247 I0.587 J0.
G1 Z-1.8 F100.
G3 X16.072 I-0.587 J0. F500.
X17.247 I0.587 J0.
G1 Z-2.1 F100.
G3 X16.072 I-0.587 J0. F500.
X17.247 I0.587 J0.
G1 Z-2.4 F100.
G3 X16.072 I-0.587 J0. F500.
X17.247 I0.587 J0.
G1 Z-2.7 F100.
G3 X16.072 I-0.587 J0. F500.
X17.247 I0.587 J0.
G1 Z-3. F100.
G3 X16.072 I-0.587 J0. F500.
X17.247 I0.587 J0.
G1 Z5.
X27.093 Y-22.683
Z1.3 F100.
Z-0.3
G3 X26.227 Y-22.183 I-0.433 J0.25 F500.
X27.093 Y-22.683 I0.433 J-0.25
G1 Z-0.6 F100.
G3 X26.227 Y-22.183 I-0.433 J0.25 F500.
X27.093 Y-22.683 I0.433 J-0.25
G1 Z-0.9 F100.
G3 X26.227 Y-22.183 I-0.433 J0.25 F500.
X27.093 Y-22.683 I0.433 J-0.25
G1 Z-1.2 F100.
G3 X26.227 Y-22.183 I-0.433 J0.25 F500.
X27.093 Y-22.683 I0.433 J-0.25
G1 Z-1.5 F100.
G3 X26.227 Y-22.183 I-0.433 J0.25 F500.
X27.093 Y-22.683 I0.433 J-0.25
G1 Z-1.8 F100.
G3 X26.227 Y-22.183 I-0.433 J0.25 F500.
X27.093 Y-22.683 I0.433 J-0.25
G1 Z-2.1 F100.
G3 X26.227 Y-22.183 I-0.433 J0.25 F500.
X27.093 Y-22.683 I0.433 J-0.25
G1 Z-2.4 F100.
G3 X26.227 Y-22.183 I-0.433 J0.25 F500.
X27.093 Y-22.683 I0.433 J-0.25
G1 Z-2.7 F100.
G3 X26.227 Y-22.183 I-0.433 J0.25 F500.
X27.093 Y-22.683 I0.433 J-0.25
G1 Z-3. F100.
G3 X26.227 Y-22.183 I-0.433 J0.25 F500.
X27.093 Y-22.683 I0.433 J-0.25
G1 Z5.
X7.087 Y-22.173
Z1.3 F100.
Z-0.3
G3 X6.233 Y-22.694 I-0.427 J-0.261 F500.
X7.087 Y-22.173 I0.427 J0.261
G1 Z-0.6 F100.
G3 X6.233 Y-22.694 I-0.427 J-0.261 F500.
X7.087 Y-22.173 I0.427 J0.261
G1 Z-0.9 F100.
G3 X6.233 Y-22.694 I-0.427 J-0.261 F500.
X7.087 Y-22.173 I0.427 J0.261
G1 Z-1.2 F100.
G3 X6.233 Y-22.694 I-0.427 J-0.261 F500.
X7.087 Y-22.173 I0.427 J0.261
G1 Z-1.5 F100.
G3 X6.233 Y-22.694 I-0.427 J-0.261 F500.
X7.087 Y-22.173 I0.427 J0.261
G1 Z-1.8 F100.
G3 X6.233 Y-22.694 I-0.427 J-0.261 F500.
X7.087 Y-22.173 I0.427 J0.261
G1 Z-2.1 F100.
G3 X6.233 Y-22.694 I-0.427 J-0.261 F500.
X7.087 Y-22.173 I0.427 J0.261
G1 Z-2.4 F100.
G3 X6.233 Y-22.694 I-0.427 J-0.261 F500.
X7.087 Y-22.173 I0.427 J0.261
G1 Z-2.7 F100.
G3 X6.233 Y-22.694 I-0.427 J-0.261 F500.
X7.087 Y-22.173 I0.427 J0.261
G1 Z-3. F100.
G3 X6.233 Y-22.694 I-0.427 J-0.261 F500.
X7.087 Y-22.173 I0.427 J0.261
G1 Z5.
X17.16 Y-5.113
Z1.3 F100.
Z-0.3
G3 X16.16 I-0.5 J0. F500.
X17.16 I0.5 J0.
G1 Z-0.6 F100.
G3 X16.16 I-0.5 J0. F500.
X17.16 I0.5 J0.
G1 Z-0.9 F100.
G3 X16.16 I-0.5 J0. F500.
X17.16 I0.5 J0.
G1 Z-1.2 F100.
G3 X16.16 I-0.5 J0. F500.
X17.16 I0.5 J0.
G1 Z-1.5 F100.
G3 X16.16 I-0.5 J0. F500.
X17.16 I0.5 J0.
G1 Z-1.8 F100.
G3 X16.16 I-0.5 J0. F500.
X17.16 I0.5 J0.
G1 Z-2.1 F100.
G3 X16.16 I-0.5 J0. F500.
X17.16 I0.5 J0.
G1 Z-2.4 F100.
G3 X16.16 I-0.5 J0. F500.
X17.16 I0.5 J0.
G1 Z-2.7 F100.
G3 X16.16 I-0.5 J0. F500.
X17.16 I0.5 J0.
G1 Z-3. F100.
G3 X16.16 I-0.5 J0. F500.
X17.16 I0.5 J0.
G1 Z5.
(WHEN USING FUSION 360 FOR PERSONAL USE, THE FEEDRATE OF)
(RAPID MOVES IS REDUCED TO MATCH THE FEEDRATE OF CUTTING)
(MOVES, WHICH CAN INCREASE MACHINING TIME. UNRESTRICTED RAPID)
(MOVES ARE AVAILABLE WITH A FUSION 360 SUBSCRIPTION.)

(2D CONTOUR1 2)
G0 X16.66 Y-34.32
G1 Z5. F100.
Z1.3
Z-0.3
G2 Y1. I0. J17.66 F500.
Y-34.32 I0. J-17.66
G1 Z-0.6 F100.
G2 Y1. I0. J17.66 F500.
Y-34.32 I0. J-17.66
G1 Z-0.9 F100.
G2 Y1. I0. J17.66 F500.
Y-34.32 I0. J-17.66
G1 Z-1.2 F100.
G2 Y1. I0. J17.66 F500.
Y-34.32 I0. J-17.66
G1 Z-1.5 F100.
G2 Y1. I0. J17.66 F500.
Y-34.32 I0. J-17.66
G1 Z-1.8 F100.
G2 Y1. I0. J17.66 F500.
Y-34.32 I0. J-17.66
G1 Z-2.1 F100.
G2 Y1. I0. J17.66 F500.
Y-34.32 I0. J-17.66
G1 Z-2.4 F100.
G2 Y1. I0. J17.66 F500.
Y-34.32 I0. J-17.66
G1 Z-2.7 F100.
G2 X9.619 Y-32.855 I0. J17.66 F500.
G1 Z-2.5
G2 X6.155 Y-30.855 I7.041 J16.195
G1 Z-2.7 F100.
G2 X-0.886 Y-18.66 I10.505 J14.195 F500.
G1 Z-2.5
G2 Y-14.66 I17.546 J2.
G1 Z-2.7 F100.
G2 X6.155 Y-2.464 I17.546 J-2. F500.
G1 Z-2.5
G2 X9.619 Y-0.464 I10.505 J-14.195
G1 Z-2.7 F100.
G2 X23.701 I7.041 J-16.195 F500.
G1 Z-2.5
G2 X27.165 Y-2.464 I-7.041 J-16.195
G1 Z-2.7 F100.
G2 X34.206 Y-14.66 I-10.505 J-14.195 F500.
G1 Z-2.5
G2 Y-18.66 I-17.546 J-2.
G1 Z-2.7 F100.
G2 X27.165 Y-30.855 I-17.546 J2. F500.
G1 Z-2.5
G2 X23.701 Y-32.855 I-10.505 J14.195
G1 Z-2.7 F100.
G2 X16.66 Y-34.32 I-7.041 J16.195 F500.
G1 Z-3. F100.
G2 X9.619 Y-32.855 I0. J17.66 F500.
G1 Z-2.5
G2 X6.155 Y-30.855 I7.041 J16.195
G1 Z-3. F100.
G2 X-0.886 Y-18.66 I10.505 J14.195 F500.
G1 Z-2.5
G2 Y-14.66 I17.546 J2.
G1 Z-3. F100.
G2 X6.155 Y-2.464 I17.546 J-2. F500.
G1 Z-2.5
G2 X9.619 Y-0.464 I10.505 J-14.195
G1 Z-3. F100.
G2 X23.701 I7.041 J-16.195 F500.
G1 Z-2.5
G2 X27.165 Y-2.464 I-7.041 J-16.195
G1 Z-3. F100.
G2 X34.206 Y-14.66 I-10.505 J-14.195 F500.
G1 Z-2.5
G2 Y-18.66 I-17.546 J-2.
G1 Z-3. F100.
G2 X27.165 Y-30.855 I-17.546 J2. F500.
G1 Z-2.5
G2 X23.701 Y-32.855 I-10.505 J14.195
G1 Z-3. F100.
G2 X16.66 Y-34.32 I-7.041 J16.195 F500.
G1 Z5.

M30
