(TEST)
G90 G94 G91.1 G40 G49 G17
G21
(WHEN USING FUSION 360 FOR PERSONAL USE, THE FEEDRATE OF)
(RAPID MOVES IS REDUCED TO MATCH THE FEEDRATE OF CUTTING)
(MOVES, WHICH CAN INCREASE MACHINING TIME. UNRESTRICTED RAPID)
(MOVES ARE AVAILABLE WITH A FUSION 360 SUBSCRIPTION.)

(2D CONTOUR1)
M5
T3
S8000 M3
G54
G0 X3.576 Y-2.665
G43 Z15. H3
G1 Z5. F50.
Z1.
Z-2.94
X3.574 Y-2.669 Z-2.963
X3.568 Y-2.681 Z-2.982
X3.558 Y-2.697 Z-2.995
X3.546 Y-2.717 Z-3.
X3.516 Y-2.769
X3.509 Y-2.791
X3.51 Y-2.815
X3.521 Y-2.836
X3.538 Y-2.851
X5.529 Y-4.
X5.551 Y-4.008
X5.575 Y-4.006
X5.596 Y-3.996
X5.611 Y-3.979
X5.641 Y-3.927
X5.652 Y-3.907 Z-2.995
X5.662 Y-3.89 Z-2.982
X5.669 Y-3.879 Z-2.963
X5.671 Y-3.875 Z-2.94
Z5.
Y3.875
Z1.
Z-2.94
X5.669 Y3.879 Z-2.963
X5.662 Y3.89 Z-2.982
X5.652 Y3.907 Z-2.995
X5.641 Y3.927 Z-3.
X5.611 Y3.979
X5.596 Y3.996
X5.575 Y4.006
X5.551 Y4.008
X5.529 Y4.
X3.538 Y2.851
X3.521 Y2.836
X3.51 Y2.815
X3.509 Y2.791
X3.516 Y2.769
X3.546 Y2.717
X3.558 Y2.697 Z-2.995
X3.568 Y2.681 Z-2.982
X3.574 Y2.669 Z-2.963
X3.576 Y2.665 Z-2.94
Z15.
X4.12 Y-0.06
Z5.
Z1.
Z-5.94
X4.125 Z-5.963
X4.138 Z-5.982
X4.157 Z-5.995
X4.18 Z-6.
X4.24
X4.263 Y-0.055
X4.282 Y-0.042
X4.295 Y-0.023
X4.3 Y0.
G3 X-4.3 I-4.3 J0.
X4.3 I4.3 J0.
G1 X4.295 Y0.023
X4.282 Y0.042
X4.263 Y0.055
X4.24 Y0.06
X4.18
X4.157 Z-5.995
X4.138 Z-5.982
X4.125 Z-5.963
X4.12 Z-5.94
Z5.
X1.02 Y8.04
Z1.
Z-5.94
X1.025 Z-5.963
X1.038 Z-5.982
X1.057 Z-5.995
X1.08 Z-6.
X1.14
X1.163 Y8.045
X1.182 Y8.058
X1.195 Y8.077
X1.2 Y8.1
G3 X-1.2 I-1.2 J0.
X1.2 I1.2 J0.
G1 X1.195 Y8.123
X1.182 Y8.142
X1.163 Y8.155
X1.14 Y8.16
X1.08
X1.057 Z-5.995
X1.038 Z-5.982
X1.025 Z-5.963
X1.02 Z-5.94
Z5.
Y-8.16
Z1.
Z-5.94
X1.025 Z-5.963
X1.038 Z-5.982
X1.057 Z-5.995
X1.08 Z-6.
X1.14
X1.163 Y-8.155
X1.182 Y-8.142
X1.195 Y-8.123
X1.2 Y-8.1
G3 X-1.2 I-1.2 J0.
X1.2 I1.2 J0.
G1 X1.195 Y-8.077
X1.182 Y-8.058
X1.163 Y-8.045
X1.14 Y-8.04
X1.08
X1.057 Z-5.995
X1.038 Z-5.982
X1.025 Z-5.963
X1.02 Z-5.94
Z15.
(WHEN USING FUSION 360 FOR PERSONAL USE, THE FEEDRATE OF)
(RAPID MOVES IS REDUCED TO MATCH THE FEEDRATE OF CUTTING)
(MOVES, WHICH CAN INCREASE MACHINING TIME. UNRESTRICTED RAPID)
(MOVES ARE AVAILABLE WITH A FUSION 360 SUBSCRIPTION.)

(2D CONTOUR2)
G0 X0.06 Y-12.08
G1 Z15. F50.
Z5.
Z1.
Z-5.94
Y-12.075 Z-5.963
Y-12.062 Z-5.982
Y-12.043 Z-5.995
Y-12.02 Z-6.
Y-11.96
X0.055 Y-11.937
X0.042 Y-11.918
X0.023 Y-11.905
X0. Y-11.9
G2 X-3.511 Y-9.554 I0. J3.8
G1 X-6.375 Y-2.641
G2 Y2.641 I6.375 J2.641
G1 X-3.511 Y9.554
G2 X3.511 I3.511 J-1.454
G1 X6.375 Y2.641
G2 Y-2.641 I-6.375 J-2.641
G1 X3.511 Y-9.554
G2 X0. Y-11.9 I-3.511 J1.454
G1 X-0.023 Y-11.905
X-0.042 Y-11.918
X-0.055 Y-11.937
X-0.06 Y-11.96
Y-12.02
Y-12.043 Z-5.995
Y-12.062 Z-5.982
Y-12.075 Z-5.963
Y-12.08 Z-5.94
Z15.

M30
